X:073 
T:Hawthorn Blossom (reel), The
F:file ID: cre.5/073hawth_b
B:CRE5.188 (BlÃÂÃÂÃÂÃÂ¡th na Sceiche Gile)
N:Close relative of "Kilmaley / Glen Allen"
M:4/4
Q:180
R:reel
K:G
G2DG EGDE|G2BG AEE2|gfed efge|dBB2 c2BA|
G2DG EGDE|GABG EA~A2|gfed efge|dBAc BGG2||
g2dg egdf|gabg eaaf|g2dg egdB|cBAc BGG2|
g2dg egdf|gabg eaaf|gfed efge|dBcA G4|]

%%%

